public/assets/img/bitcoin.svg

<svg width="24" height="24" viewBox="0 0 24 24" fill="none" xmlns="http://www.w3.org/2000/svg">
<rect x="2.0004" y="2.00098" width="20" height="20" rx="10" fill="#F7931A"/>
<path fill-rule="evenodd" clip-rule="evenodd" d="M16.4079 10.5753C16.607 9.24469 15.5938 8.52938 14.2085 8.05219L14.6579 6.24969L13.5607 5.97625L13.1232 7.73125C12.8348 7.65938 12.5385 7.59156 12.2442 7.52438L12.6848 5.75781L11.5882 5.48438L11.1385 7.28625C10.8998 7.23188 10.6654 7.17813 10.4379 7.12156L10.4392 7.11594L8.92603 6.73813L8.63415 7.91C8.63415 7.91 9.44822 8.09656 9.43103 8.10813C9.8754 8.21906 9.95572 8.51313 9.94228 8.74625L9.4304 10.7997C9.46103 10.8075 9.50072 10.8188 9.54447 10.8363L9.50727 10.827L9.50715 10.8269C9.48174 10.8206 9.45541 10.814 9.42853 10.8075L8.71103 13.6841C8.65665 13.8191 8.51884 14.0216 8.20822 13.9447C8.21915 13.9606 7.41072 13.7456 7.41072 13.7456L6.86603 15.0016L8.29384 15.3575C8.4533 15.3975 8.61085 15.4385 8.76676 15.4792L8.76694 15.4793C8.87067 15.5063 8.97367 15.5332 9.07603 15.5594L8.62197 17.3825L9.7179 17.6559L10.1676 15.8522C10.467 15.9334 10.7576 16.0084 11.042 16.0791L10.5938 17.8744L11.691 18.1478L12.1451 16.3281C14.016 16.6822 15.4229 16.5394 16.0151 14.8472C16.4923 13.4847 15.9913 12.6988 15.007 12.1863C15.7238 12.0209 16.2638 11.5494 16.4079 10.5753ZM13.9013 14.0912C13.5902 15.3413 11.6336 14.8245 10.7383 14.588L10.7382 14.588C10.6577 14.5667 10.5858 14.5477 10.5244 14.5325L11.1269 12.1172C11.2017 12.1358 11.293 12.1563 11.3964 12.1795L11.3965 12.1796C12.3224 12.3873 14.2201 12.8131 13.9013 14.0912ZM11.5821 11.059C12.3286 11.2582 13.9567 11.6927 14.2403 10.5566C14.5299 9.39451 12.9475 9.0442 12.1747 8.87312C12.0877 8.85388 12.011 8.8369 11.9484 8.82129L11.4022 11.0119C11.4538 11.0248 11.5143 11.0409 11.5821 11.059Z" fill="white"/>
</svg>

<svg width="24" height="24" fill="none" xmlns="http://www.w3.org/2000/svg"><rect x="2" y="2.001" width="20" height="20" rx="10" fill="#F7931A"/><path fill-rule="evenodd" clip-rule="evenodd" d="M16.408 10.575c.199-1.33-.814-2.046-2.2-2.523l.45-1.802-1.097-.274-.438 1.755c-.288-.072-.584-.14-.879-.207l.44-1.766-1.096-.274-.45 1.802a36.696 36.696 0 0 1-.7-.164l.001-.006-1.513-.378-.292 1.172s.814.187.797.198c.444.111.525.405.511.638L9.43 10.8c.031.007.07.019.114.036l-.037-.009-.078-.02-.718 2.877c-.054.135-.192.338-.503.26.011.017-.797-.198-.797-.198l-.545 1.256 1.428.355c.16.04.317.082.473.122l.309.08-.454 1.824 1.096.273.45-1.804c.299.081.59.156.874.227l-.448 1.795 1.097.274.454-1.82c1.871.354 3.278.211 3.87-1.48.477-1.363-.024-2.15-1.008-2.662.717-.165 1.257-.637 1.4-1.61ZM13.9 14.091c-.31 1.25-2.267.734-3.163.497l-.214-.055.603-2.416c.075.019.166.04.27.063.925.207 2.823.633 2.504 1.911Zm-2.319-3.032c.747.2 2.375.634 2.658-.502.29-1.162-1.293-1.513-2.065-1.684a9.352 9.352 0 0 1-.227-.052l-.546 2.19.18.048Z" fill="#fff"/></svg>
